X: 26417
T: Merry Old Maid, The
R: jig
M: 6/8
K: Eminor
E3 e2B|dcd AFD|E3 e2B|efg fdB|efe eBc|dcB AFD|G3 A=cA|BGE E2D:|
g2g efg|fgf def|g2e efg|afd d2a|gfe efg|f3 Bcd|e2B g2A|BGE E2D:|

